X:1
T: Lord George Gordon's Strathspey
C:Bruce Shawyer
R:Strathspey
Q:128
K:D
M:4/4
L:1/16
|:D3F|A4A4 B3A G3B|A4 A3A F4 D3F|A4A4 B3A G3F|E4 E3E A,4 D3F|
A4A4 B3A G3B|A4 A3A F4 D3F|G4G4 E3C A,3A,|D4 D3D D4 A3F|
D4D4 E3F G3E|F4 A3A A4 A3F|D4D4 E3F ^G3E|A4 A3A A4A4|
B3A G3B A4 F4|G3F E3D C4 A,4|D4D4 E3C A,3A,|D4 D3D D4:|
